X:1
T:Title
%%score { ( 1 3 ) | ( 2 4 ) }
L:1/8
M:6/8
K:Bb
V:1 treble nm="Grand Piano"
V:3 treble 
V:2 bass 
V:4 bass 
V:1
 z3 z2[Q:1/4=84] [DF] | [DF][B,D][CE] [DF]FF | G[GB][EG] [DF]2 F | FED E2 A | %4
 [B,EG][F,DF][G,_D=E] [F,=DF]2 [C_EF] | [B,DF][K:bass][F,B,D][F,CE][K:treble] [B,DF][A,EF][_A,F] | %6
 [G,EG][GB][B,EG] [DF]2 [DF] | [CAc][Gc][Fc] [=Ec][Ed][Ec] |[M:5/8] F-F- F3 |[M:1/8] F | %10
[M:3/4] z2 z .c3 | z2 z .d3 | [Ge]d cB AG |[M:13/16] z/ z/ z/ z/ z c/-c-<c z | %14
[M:3/4] [DF][B,D] [CE][DF] [FB]c | dc B[FA] [EG][Ge] | [DF][DB] [Fd]c GA |[M:5/8] d3 z2 |] %18
V:2
 z3 z2 [B,,B,] | [B,,B,][B,,F,][B,,F,] [B,,B,][C,A,C][D,_A,B,] | %2
 [E,G,E][E,G,][E,B,] [B,,B,]2 [D,B,D] | [F,A,D][F,A,C][F,_A,=B,] [F,=A,C]2 [F,A,F] | %4
 B,,B,,B,, B,,2 A,, | B,,B,,B,, B,,C,D, | E,[E,G,]G, B,2 B,, | C,[C,B,][C,A,] [C,B,][C,G,][C,B,] | %8
[M:5/8] B, z z z2 |[M:1/8] [F,B,D] | %10
[M:3/4] [F,A,E]E [F,A,E][K:treble][A,CF] [G,B,][K:bass][F,A,E] | %11
 [B,D][K:treble]D [CE][B,DB] [B,D][B,_A] | [E,B,]F [E,B,E][=E,G,_D] [E,A,D][E,B,D] | %13
[M:13/16] z/ z/ z/ z/ z .B,3/2 z/ z/ z | %14
[M:3/4] [B,,B,][B,,F,] [B,,F,][B,,B,] [D,B,][K:treble][F,B,F] | %15
 [B,F][K:bass][F,A,E] [G,B,D] [E,B,]2 [E,B,] | [F,B,][D,F,] [B,,_A,][E,G,E] [E,C][F,F] | %17
[M:5/8] [A,E] z z z2 |] %18
V:3
 x6 | x6 | x6 | x6 | x6 | x[K:bass] x2[K:treble] x3 | x6 | x6 |[M:5/8] z CD E2 |[M:1/8] x | %10
[M:3/4] cF .F2 =E_d | dF .F2 Ad | x6 |[M:13/16] F[FB][Fd] z A,3/2F |[M:3/4] x6 | x6 | x6 | %17
[M:5/8] z FE [B,DB]2 |] %18
V:4
 x6 | x6 | x6 | x6 | x6 | x6 | x6 | x6 |[M:5/8] F,-[F,-A,][F,-B,] [F,C]2 |[M:1/8] x | %10
[M:3/4] x3[K:treble] x2[K:bass] x | x[K:treble] x5 | x6 | %13
[M:13/16] [F,B,D][D,F,][B,,B,][F,F]/-[F,F]-<[F,F][F,CE] |[M:3/4] x5[K:treble] x | x[K:bass] x5 | %16
 x6 |[M:5/8] F,-[F,-_A,][F,=A,] B,,2 |] %18

